svgs/light/file-import.svg

<svg xmlns="http://www.w3.org/2000/svg" viewBox="0 0 512 512"><!-- Font Awesome Pro 6.0.0-alpha2 by @fontawesome - https://fontawesome.com License - https://fontawesome.com/license (Commercial License) --><path d="M260.688 404.688C254.438 410.938 254.438 421.063 260.688 427.312C263.812 430.438 267.906 432 272 432S280.188 430.438 283.312 427.312L379.312 331.312C385.562 325.062 385.562 314.937 379.312 308.688L283.312 212.688C277.062 206.438 266.937 206.438 260.688 212.688S254.438 229.063 260.688 235.312L329.375 304H16C7.156 304 0 311.156 0 320S7.156 336 16 336H329.375L260.688 404.688ZM493.254 125.252L386.746 18.746C374.744 6.742 358.463 0 341.488 0H192C156.654 0 128 28.654 128 64V240C128 248.836 135.164 256 144 256C152.838 256 160 248.836 160 240V64C160 46.326 174.328 32 192 32H320V144C320 170.51 341.49 192 368 192H480V448C480 465.674 465.674 480 448 480H192C174.328 480 160 465.674 160 448V400C160 391.164 152.838 384 144 384C135.164 384 128 391.164 128 400V448C128 483.346 156.654 512 192 512H448C483.348 512 512 483.346 512 448V170.51C512 153.535 505.258 137.254 493.254 125.252ZM368 160C359.188 160 352 152.828 352 144V34.076C356.477 35.643 360.666 37.922 364.119 41.375L470.627 147.879C474.08 151.332 476.357 155.523 477.924 160H368Z"/></svg>

<svg xmlns="http://www.w3.org/2000/svg" viewBox="0 0 512 512"><!--! Font Awesome Pro 6.0.0-alpha3 by @fontawesome - https://fontawesome.com License - https://fontawesome.com/license (Commercial License) --><path d="M260.7 404.7c-6.25 6.25-6.25 16.38 0 22.62C263.8 430.4 267.9 432 272 432s8.188-1.562 11.31-4.688l96-96c6.25-6.25 6.25-16.38 0-22.62l-96-96c-6.25-6.25-16.38-6.25-22.62 0s-6.25 16.38 0 22.62L329.4 304H16C7.156 304 0 311.2 0 320s7.156 16 16 16h313.4L260.7 404.7zM493.3 125.3l-106.5-106.5C374.7 6.742 358.5 0 341.5 0H192C156.7 0 128 28.65 128 64v176C128 248.8 135.2 256 144 256C152.8 256 160 248.8 160 240V64c0-17.67 14.33-32 32-32h128v112C320 170.5 341.5 192 368 192H480v256c0 17.67-14.33 32-32 32H192c-17.67 0-32-14.33-32-32v-48C160 391.2 152.8 384 144 384C135.2 384 128 391.2 128 400L128 448c0 35.35 28.66 64 64 64H448c35.35 0 64-28.65 64-64V170.5C512 153.5 505.3 137.3 493.3 125.3zM368 160C359.2 160 352 152.8 352 144V34.08c4.477 1.566 8.666 3.846 12.12 7.299l106.5 106.5C474.1 151.3 476.4 155.5 477.9 160H368z"/></svg>
